X: 4033
T: Lady Mary Murray's    Strathspey
C: by Nath Gow
%R: strathspey
B: Niel Gow & Sons "A Fourth Collection of Strathspey Reels, etc." v.4 p.3 #3
Z: 2022 John Chambers <jc:trillian.mit.edu>
M: C
L: 1/8
K: G
% - - - - - - - - - -
% Voice 1 reformatted for 2 6-bar lines.
V: 1 staves=2
E |\
D>EG>B d/c/B/A/ BG | A>B {AB}c>B {B}TA>G {G}TF>E |\
D>EG>B d/c/B/A/ BG | A<B g>B G/G/G G :|\
g |\
Td>eTg>a b/a/g/f/ g>e | d<Bg>B AdAF |
Td>eTg>a b/a/g/f/ ge | d>Bg>B G/G/G G>e ||\
Td>eTg>b a<bg<a | e<gB<g {B}TA>G {G}TF>E |\
D>EG>B e/c/B/A/ BG | A<B g>B G/G/G G |]
% - - - - - - - - - -
% Voice 2 preserves the staff layout in the book.
V: 2 clef=bass middle=d
z | G2g2 G2G2 | d2d2 d2c2 | B2G2 G2B2 | c2d2 G2G :| z | g2g2 G2c2 | B2G2
d2D2 | g2g2 G2c2 | d2d2 G2G2 || b2g2 d'2b2 | c'2g2 d2c2 | B2G2 d2B2 | c2d2 G2G |]


